X:357
T:Trip to Plymouth
R:jig 32
S:Trad
O:English
F:http://banjolin.co.uk/tunes/abcs/triptoplymouth.abc
R:Jig
M:6/8
L:1/8
Q:1/8=140
K:D
A |: d2f ecA | Bcd AFD | FGA Bcd | efd cBA |
|d2f ecA | B2d AFD | FGA Bcd | edc d2 :|
|:A | e2f ecA | f2g fdA | Bcd efg | Bed c2A |
|e2f ecA | f2d AFD | FGA Bcd | edc d2 :|

